logo/theia-logo-white.svg

<svg preserveAspectRatio="xMinYMin meet" viewBox="0 0 3851.35 540.6" xmlns="http://www.w3.org/2000/svg"><g fill="#fff"><path d="m3635.123 3.912c.001 0 23.497 0 33.312 7.188 0 0 9.864 7.188 17.448 29.147l164.325 479.441s2.28 6.048.396 11.005c0 0-1.883 4.907-10.261 4.907h-69.646c.001 0-8.327 0-13.235-1.883 0 0-4.957-1.884-7.981-10.212l-33.311-103.75h-192.381l-33.311 102.957s-2.28 6.841-6.444 9.864c0 0-4.164 3.024-13.235 3.024h-69.696c.001 0-8.327 0-10.607-4.907 0 0-2.231-4.957 0-11.005l163.58-479.441s3.817-11.351 7.585-18.142c0 0 3.817-6.841 9.468-10.608 0 0 5.7-3.817 13.284-5.701 0 0 7.535-1.884 18.143-1.884zm-14.375 102.263h-3.767l-31.081 105.188-39.358 129.378h145.389l-39.359-127.148z"/><path d="m2071.209 5.35s10.608 0 14.375 2.677c0 0 3.768 2.627 3.768 13.235l-.001 196.396h235.557v-196.396s0-9.865 4.214-12.888c0 0 4.163-3.024 13.235-3.024h57.699s10.608 0 14.028 2.677c0 0 3.421 2.627 3.421 13.235v498.426s0 10.608-3.421 13.285c0 0-3.42 2.627-14.028 2.627h-57.7c.001 0-9.071 0-13.234-3.024 0 0-4.214-3.023-4.214-12.888v-222.569h-235.557v222.569c.001 0 .001 10.608-3.767 13.285 0 0-3.767 2.627-14.375 2.627h-57.502c.001 0-8.327 0-12.838-3.024 0 0-4.56-3.023-4.56-12.888l-.001-498.426c.001 0 .001-9.865 4.561-12.888 0 0 4.511-3.024 12.839-3.024z"/><path d="m1840.411 5.35s8.328 0 11.005 3.024c0 0 2.627 3.073 2.627 11.401v52.395s0 7.585-2.627 10.608c0 0-2.677 3.024-11.005 3.024h-143.852v433.886s0 10.608-3.42 13.285c0 0-3.421 2.627-14.029 2.627h-59.186s-9.071 0-13.235-3.024c0 0-4.164-3.023-4.164-12.888v-433.886h-140.878s-8.328 0-10.608-3.024c0 0-2.28-3.023-2.28-10.608l-.001-52.395c.001 0 .001-8.328 2.281-11.401 0 0 2.28-3.024 10.608-3.024z"/><path d="m881.099 2.2c147.901 0 267.701 119.8 267.701 267.7 0 147.8-119.8 267.7-267.7 267.7h-590.1c-21.1 0-38.2-17.1-38.2-38.2s17.1-38.2 38.2-38.2h137.5c21 0 38.1-17.1 38.1-38.2s-17.1-38.2-38.1-38.2h-30.601c-21.099 0-38.199-17.1-38.199-38.2s17.1-38.2 38.2-38.2h91.703c21.215-.059 37.67-17.35 38.197-38.2 0-21.1-17.1-38.2-38.2-38.2h-320.9c-21.1 0-38.2-17.1-38.2-38.2s17.1-38.2 38.2-38.2h236.804c21.214-.059 37.669-17.35 38.196-38.2 0-21.1-17.1-38.2-38.2-38.2h-53.4c-21.1 0-38.2-17.1-38.2-38.2s17.1-39.2 38.2-39.2zm-42.799 89.2c-82.2 0-148.7 66.6-148.7 148.7v59.5c0 82.2 66.5 148.7 148.7 148.7 82.1 0 148.7-66.5 148.7-148.7v-59.5c0-82.1-66.6-148.7-148.7-148.7zm50.8 140.6c19.8 0 35.9 16.1 35.9 35.9v4.6c0 19.8-16.1 35.9-35.9 35.9h-111.6c-19.8 0-35.9-16.1-35.9-35.9v-4.6c0-19.8 16.1-35.9 35.9-35.9z"/><path d="m171 461.2c19.9 0 35.9 16 35.9 35.9v4.6c0 19.8-16 35.9-35.9 35.9h-132.1c-19.8 0-35.9-16.1-35.9-35.9v-4.6c0-19.9 16.1-35.9 35.9-35.9z"/><path d="m2952.904 4.854c.001 0 9.815 0 12.492 4.214 0 0 2.627 4.164 2.627 13.235v47.785s0 9.865-2.627 13.285c0 0-2.677 3.42-12.491 3.42h-201.453s-28.8 0-40.548 12.839c0 0-11.699 12.888-11.699 37.078v79.461h228.667s9.864 0 12.541 3.817c0 0 2.627 3.767 2.627 14.326v41.589s0 9.071-2.627 13.186c0 0-2.677 4.163-12.541 4.163h-228.667v110.69s0 24.24 12.492 36.732c0 0 12.491 12.541 39.755 12.541h205.963s10.608 0 13.285 3.767c0 0 2.627 3.767 2.627 14.375v46.844s0 8.328-3.024 12.839c0 0-3.023 4.56-12.888 4.56h-215.828c.001 0-40.151 0-65.928-11.351 0 0-25.776-11.352-41.341-30.288 0 0-15.565-18.935-21.612-43.175 0 0-6.098-24.19-6.098-50.71v-258.904s0-26.52 7.188-51.107c0 0 7.237-24.636 23.546-43.572 0 0 16.308-18.886 42.085-30.287 0 0 25.826-11.352 62.161-11.352z"/><path d="m3219.328 5.35s10.559 0 14.376 2.677c0 0 3.767 2.627 3.767 13.235v498.426s0 10.608-3.767 13.285c0 0-3.817 2.627-14.376 2.627h-57.501s-9.071 0-13.235-3.024c0 0-4.164-3.023-4.164-12.888v-498.426s0-9.865 4.164-12.888c0 0 4.164-3.024 13.235-3.024z"/><path d="m232.2 2.8c19.8 0 35.8 16.1 35.8 35.9v4.7c0 19.8-16 35.8-35.8 35.8h-147.5c-19.8 0-35.9-16-35.9-35.8v-4.7c0-19.8 16.1-35.9 35.9-35.9z" fill="#fff"/><path d="m278 308.4c19.8 0 35.9 16.1 35.9 35.9v4.6c0 19.8-16.1 35.9-35.9 35.9h-81c-19.8 0-35.9-16.1-35.9-35.9v-4.6c0-19.8 16.1-35.9 35.9-35.9z"/></g></svg>

<?xml version="1.0" encoding="UTF-8"?>
<!--
/********************************************************************************
 * Copyright (C) 2018 TypeFox and others.
 *
 * This program and the accompanying materials are made available under the
 * terms of the Eclipse Public License v. 2.0 which is available at
 * http://www.eclipse.org/legal/epl-2.0.
 *
 * This Source Code may also be made available under the following Secondary
 * Licenses when the conditions for such availability set forth in the Eclipse
 * Public License v. 2.0 are satisfied: GNU General Public License, version 2
 * with the GNU Classpath Exception which is available at
 * https://www.gnu.org/software/classpath/license.html.
 *
 * SPDX-License-Identifier: EPL-2.0 OR GPL-2.0 WITH Classpath-exception-2.0
 ********************************************************************************/
-->
<!DOCTYPE svg PUBLIC "-//W3C//DTD SVG 1.1//EN" "http://www.w3.org/Graphics/SVG/1.1/DTD/svg11.dtd">
<svg version="1.1" xmlns="http://www.w3.org/2000/svg" xmlns:xlink="http://www.w3.org/1999/xlink" x="0" y="0" preserveAspectRatio="xMinYMin meet" viewBox="0, 0, 3851.35, 540.6">
  <g id="Layer_1" fill="#FFFFFF">
    <path d="M3635.123,3.912 C3635.124,3.912 3658.62,3.912 3668.435,11.1 C3668.435,11.1 3678.299,18.288 3685.883,40.247 L3850.208,519.688 C3850.208,519.688 3852.488,525.736 3850.604,530.693 C3850.604,530.693 3848.721,535.6 3840.343,535.6 L3770.697,535.6 C3770.698,535.6 3762.37,535.6 3757.462,533.717 C3757.462,533.717 3752.505,531.833 3749.481,523.505 L3716.17,419.755 L3523.789,419.755 L3490.478,522.712 C3490.478,522.712 3488.198,529.553 3484.034,532.576 C3484.034,532.576 3479.87,535.6 3470.799,535.6 L3401.103,535.6 C3401.104,535.6 3392.776,535.6 3390.496,530.693 C3390.496,530.693 3388.265,525.736 3390.496,519.688 L3554.076,40.247 C3554.076,40.247 3557.893,28.896 3561.661,22.105 C3561.661,22.105 3565.478,15.264 3571.129,11.497 C3571.129,11.497 3576.829,7.68 3584.413,5.796 C3584.413,5.796 3591.948,3.912 3602.556,3.912 L3635.123,3.912 z M3620.748,106.175 L3616.981,106.175 L3585.9,211.363 L3546.542,340.741 L3691.931,340.741 L3652.572,213.593 L3620.748,106.175 z"/>
    <path d="M2071.209,5.35 C2071.209,5.35 2081.817,5.35 2085.584,8.027 C2085.584,8.027 2089.352,10.654 2089.352,21.262 L2089.351,217.658 L2324.908,217.658 L2324.908,21.262 C2324.908,21.262 2324.908,11.397 2329.122,8.374 C2329.122,8.374 2333.285,5.35 2342.357,5.35 L2400.056,5.35 C2400.056,5.35 2410.664,5.35 2414.084,8.027 C2414.084,8.027 2417.505,10.654 2417.505,21.262 L2417.505,519.688 C2417.505,519.688 2417.505,530.296 2414.084,532.973 C2414.084,532.973 2410.664,535.6 2400.056,535.6 L2342.356,535.6 C2342.357,535.6 2333.285,535.6 2329.122,532.576 C2329.122,532.576 2324.908,529.553 2324.908,519.688 L2324.908,297.119 L2089.351,297.119 L2089.351,519.688 C2089.352,519.688 2089.352,530.296 2085.584,532.973 C2085.584,532.973 2081.817,535.6 2071.209,535.6 L2013.707,535.6 C2013.708,535.6 2005.38,535.6 2000.869,532.576 C2000.869,532.576 1996.309,529.553 1996.309,519.688 L1996.308,21.262 C1996.309,21.262 1996.309,11.397 2000.869,8.374 C2000.869,8.374 2005.38,5.35 2013.708,5.35 L2071.209,5.35 z"/>
    <path d="M1840.411,5.35 C1840.411,5.35 1848.739,5.35 1851.416,8.374 C1851.416,8.374 1854.043,11.447 1854.043,19.775 L1854.043,72.17 C1854.043,72.17 1854.043,79.755 1851.416,82.778 C1851.416,82.778 1848.739,85.802 1840.411,85.802 L1696.559,85.802 L1696.559,519.688 C1696.559,519.688 1696.559,530.296 1693.139,532.973 C1693.139,532.973 1689.718,535.6 1679.11,535.6 L1619.924,535.6 C1619.924,535.6 1610.853,535.6 1606.689,532.576 C1606.689,532.576 1602.525,529.553 1602.525,519.688 L1602.525,85.802 L1461.647,85.802 C1461.647,85.802 1453.319,85.802 1451.039,82.778 C1451.039,82.778 1448.759,79.755 1448.759,72.17 L1448.758,19.775 C1448.759,19.775 1448.759,11.447 1451.039,8.374 C1451.039,8.374 1453.319,5.35 1461.647,5.35 L1840.411,5.35 z" />
    <path d="M881.099,2.2 C1029,2.2 1148.8,122 1148.8,269.9 C1148.8,417.7 1029,537.6 881.1,537.6 L291,537.6 C269.9,537.6 252.8,520.5 252.8,499.4 C252.8,478.3 269.9,461.2 291,461.2 L428.5,461.2 C449.5,461.2 466.6,444.1 466.6,423 C466.6,401.9 449.5,384.8 428.5,384.8 L397.899,384.8 C376.8,384.8 359.7,367.7 359.7,346.6 C359.7,325.5 376.8,308.4 397.9,308.4 L489.603,308.4 C510.818,308.341 527.273,291.05 527.8,270.2 C527.8,249.1 510.7,232 489.6,232 L168.7,232 C147.6,232 130.5,214.9 130.5,193.8 C130.5,172.7 147.6,155.6 168.7,155.6 L405.504,155.6 C426.718,155.541 443.173,138.25 443.7,117.4 C443.7,96.3 426.6,79.2 405.5,79.2 L352.1,79.2 C331,79.2 313.9,62.1 313.9,41 C313.9,19.9 331,1.8 352.1,1.8 L881.099,2.2 z M838.3,91.4 L838.3,91.4 C756.1,91.4 689.6,158 689.6,240.1 L689.6,299.6 C689.6,381.8 756.1,448.3 838.3,448.3 C920.4,448.3 987,381.8 987,299.6 L987,240.1 C987,158 920.4,91.4 838.3,91.4 L838.3,91.4 z M889.1,232 C908.9,232 925,248.1 925,267.9 L925,272.5 C925,292.3 908.9,308.4 889.1,308.4 L777.5,308.4 C757.7,308.4 741.6,292.3 741.6,272.5 L741.6,267.9 C741.6,248.1 757.7,232 777.5,232 L889.1,232 z"/>
    <path d="M171,461.2 C190.9,461.2 206.9,477.2 206.9,497.1 L206.9,501.7 C206.9,521.5 190.9,537.6 171,537.6 L38.9,537.6 C19.1,537.6 3,521.5 3,501.7 L3,497.1 C3,477.2 19.1,461.2 38.9,461.2 L171,461.2 z"/>
    <path d="M2952.904,4.854 C2952.905,4.854 2962.719,4.854 2965.396,9.068 C2965.396,9.068 2968.023,13.232 2968.023,22.303 L2968.023,70.088 C2968.023,70.088 2968.023,79.953 2965.396,83.373 C2965.396,83.373 2962.719,86.793 2952.905,86.793 L2751.452,86.793 C2751.452,86.793 2722.652,86.793 2710.904,99.632 C2710.904,99.632 2699.205,112.52 2699.205,136.71 L2699.205,216.171 L2927.872,216.171 C2927.872,216.171 2937.736,216.171 2940.413,219.988 C2940.413,219.988 2943.04,223.755 2943.04,234.314 L2943.04,275.903 C2943.04,275.903 2943.04,284.974 2940.413,289.089 C2940.413,289.089 2937.736,293.252 2927.872,293.252 L2699.205,293.252 L2699.205,403.942 C2699.205,403.942 2699.205,428.182 2711.697,440.674 C2711.697,440.674 2724.188,453.215 2751.452,453.215 L2957.415,453.215 C2957.415,453.215 2968.023,453.215 2970.7,456.982 C2970.7,456.982 2973.327,460.749 2973.327,471.357 L2973.327,518.201 C2973.327,518.201 2973.327,526.529 2970.303,531.04 C2970.303,531.04 2967.28,535.6 2957.415,535.6 L2741.587,535.6 C2741.588,535.6 2701.436,535.6 2675.659,524.249 C2675.659,524.249 2649.883,512.897 2634.318,493.961 C2634.318,493.961 2618.753,475.026 2612.706,450.786 C2612.706,450.786 2606.608,426.596 2606.608,400.076 L2606.608,141.172 C2606.608,141.172 2606.608,114.652 2613.796,90.065 C2613.796,90.065 2621.033,65.429 2637.342,46.493 C2637.342,46.493 2653.65,27.607 2679.427,16.206 C2679.427,16.206 2705.253,4.854 2741.588,4.854 L2952.904,4.854 z"/>
    <path d="M3219.328,5.35 C3219.328,5.35 3229.887,5.35 3233.704,8.027 C3233.704,8.027 3237.471,10.654 3237.471,21.262 L3237.471,519.688 C3237.471,519.688 3237.471,530.296 3233.704,532.973 C3233.704,532.973 3229.887,535.6 3219.328,535.6 L3161.827,535.6 C3161.827,535.6 3152.756,535.6 3148.592,532.576 C3148.592,532.576 3144.428,529.553 3144.428,519.688 L3144.428,21.262 C3144.428,21.262 3144.428,11.397 3148.592,8.374 C3148.592,8.374 3152.756,5.35 3161.827,5.35 L3219.328,5.35 z"/>
    <path d="M232.2,2.8 C252,2.8 268,18.9 268,38.7 L268,43.4 C268,63.2 252,79.2 232.2,79.2 L84.7,79.2 C64.9,79.2 48.8,63.2 48.8,43.4 L48.8,38.7 C48.8,18.9 64.9,2.8 84.7,2.8 L232.2,2.8 z" fill="#FFFFFF"/>
    <path d="M278,308.4 C297.8,308.4 313.9,324.5 313.9,344.3 L313.9,348.9 C313.9,368.7 297.8,384.8 278,384.8 L197,384.8 C177.2,384.8 161.1,368.7 161.1,348.9 L161.1,344.3 C161.1,324.5 177.2,308.4 197,308.4 L278,308.4 z"/>
  </g>
</svg>
